X:1
T:Title
%%score ( 1 2 ) { 3 | 4 }
L:1/8
Q:1/4=107
M:4/4
K:D
V:1 treble nm="Grand Piano, Unnamed-000"
V:2 treble 
V:3 bass nm="Choir Pad, Christmas, G. F. Handel"
V:4 bass 
V:1
 z4 z2 c2 | [GB]2 [DA]2 D>[CE] [DF]2 | z4 z2 A2 | [EG][DF] [DF]2 [CE]2 z c | %4
 de-[Ge][FA]- [FA] [EG]2 [CG]- | [CG] [DG]2 D- [DE-]/E/ [DF]2 d | c [GB]2 [FA]- [FA] [DG]2 [DF]- | %7
 [DF] B2 A- A/ z/ z z [Ee]- | [Ee] [FA]2 [Dd]- [Dd]/E/ [DF]2 [CE]- | [CE] D3- D4- | D2 z2 z4 |] %11
V:2
 [DF]>[CG] [DA]2 [Fd]2 EF | x8 | [DF]>G [DA]2 [DA]2 DF | z4 z2 z A- | AA z2 z4 | z2 z F z2 z F- | %6
 F z z2 z4 | z D3- D/ z/ z z2 | x8 | x8 | x8 |] %11
V:3
 A,2 A,2 A,2 A,2 | B,C D2 A,2 A,2 | A,2 A,2 F,2 D2 | B,2 A,4 z[K:treble] E- | %4
 E E2 D =C[K:bass] B,2 A,- | A, A,2 A, G, A,2 D,- | D, D,2 D C B,2 A,- | %7
 A, G,2 F,- F,/ z/ z z B,- | B,/C/ D2 A,- A,/B,/ A,2 A,,- | A,, F,3- F,4- | F,2 z2 z4 |] %11
V:4
 D,>E, F,2 D,2 z2 | G,2 F,2 F,>E, D,2 | D,>E, F,2 D,2 F,2 | G,2 z2 z2 z A,, | %4
 B,, C,2 D,- D,/ z/ E,2 A,,- | A,, D,2 D,- D,/ z/ .D,3 | z2 z D,- D,/ z/ D,2 D,- | %7
 D, D,3- D,/ z/ z z G,- | G, F,2 F,- F,<.G, z2 | z D,3- D,4- | D,2 z2 z4 |] %11

